!!!OTL: Na Świeta Skolastyke
**kern
*staff1
=--
*clefC1
*k[]
1a
2b
2dd
=-
1cc
1dd
=-
1cc
2b
2a
=-
1g
1g
=-
1a
1b
=-
1cc
1b
=-
2cc
2dd
1cc
1dd
!!linebreak:original
=-
2dd
2dd
2cc
2a
1g
=-
!LO:TX:Y=-40:t=P
!LO:TX:Y=-42:t=P
1a
1a
=-
1a
0a
0cc
1dd
=-
0a
=-
0b
=-
0cc
=-
0a
=-
!LO:TX:Y=-45:t=P
1f
1g
1a
!!linebreak:original
=-
1b
2cc
2dd
1cc
=-
!LO:TX:Y=-41:t=P
1dd
1dd
=-
1cc
2dd
2dd
=-
!LO:TX:Y=-41:t=P
1a
1dd
=-
1cc
2dd
2dd
=-
!LO:TX:Y=-39:t=P
1a
1g
=-
2g
2f
1e
=-
!LO:TX:Y=-39:t=P
1d
1f
=-
!LO:TX:Y=-42:t=P
1g
1a
=-
!!linebreak:original
1g
1a
=-
2g
2f
1e
=-
!LO:TX:Y=-37:t=P
1d
1f
=-
1g
1a
=-
!LO:TX:Y=-41:t=P
1g
1a
=-
2b
2cc
2dd
2b
=-
2cc
2dd
0cc
0dd
!!linebreak:original
=-
0r
=-
1a
2cc
2cc
=-
!LO:TX:Y=-41:t=P
2b
2cc
1dd
=-
1cc
1b
=-
!LO:TX:Y=-42:t=P
1cc
1a
=-
!LO:TX:Y=-41:t=P
2a
2a
2b
2dd
=-
2cc
2cc
1dd
=-
!LO:TX:Y=-41:t=P
1a
2b
2cc
=-
2dd
2b
2cc
2dd
=-
0cc
=-
0dd
=-=
*-
!!title: @{OTL}, @{GTL}, ed. @{ENC}
!!!pag:
!!!GTL: Hymnbook C
!!!EFL: 
!!!YEM: Creative Commons CC/BY/NC/SA 4.0
!!!ENC: Marcin Konik
!!!END: 2015-0m-dd
!!!EED: Marcin Konik
!!!EEV: 
!!!ONB: Encoded in vim by Marcin Konik
!!!CharacterEncoding: utf-8
!!!RDF**kern: l=long note in original notation
!!!RDF**kern: i=editorial accidental
!!muse2ps: z14jc180F
!!!COM: Anonim
!!!CDT: [?]
!!!TXO: Polish
!!!ODT: 
!!!GTL: Hymnbook C
!!!ARL: Opactwo św. Wojciecha, Staniątki 
!!!voices:	1
